X: 22563
T: Lady Madelina Sinclair's
R: strathspey
M: 4/4
K: Amajor
f|eAc>A c/d/e Tf2|eA {f}ed/c/{c}B2 Bf|eAcA c/d/eTf2|eA TcB {B}A2 A:|
f/g/|a>eTf>e f/g/a {ga}b2|a/g/f/e/ a>c{c}B2 Bg|a>eTf>e (3fga (3gab|a/g/f/e/ f/g/a/e/ Ta2 ef/g/|
afge fdec|d<bc<a {c}B2 BA|c/d/e Tf2 c/d/e Ta|A<ATc>B {B}A2A||

